dist/img/svgs/google-plus-circle.svg

<svg fill="none" height="24" viewBox="0 0 24 24" width="24" xmlns="http://www.w3.org/2000/svg"><path d="m24 12.0019c0 6.6283-5.3735 11.9981-12.001 11.9981-6.6266 0-11.999-5.3698-11.999-11.9981 0-6.62678 5.3724-12.0019 11.999-12.0019 6.6275 0 12.001 5.37512 12.001 12.0019z" fill="#888f91"/><g fill="#212d31"><path clip-rule="evenodd" d="m13.4153 16.1311c-.0693.6449-.4454 1.0674-1.0138 1.3242-.4782.2168-.9844.3097-1.5109.2897-.7413-.0328-1.46093-.1494-2.08556-.5883-1.16765-.8235-1.05828-2.3807.21305-3.0183.75149-.3771 1.56561-.4827 2.38621-.4426.8888.0436 2.1056 1.5573 2.011 2.4353zm-3.83434-5.8671c-.57651-.78125-.81783-1.67026-.71577-2.6374.06919-.65576.4153-1.12748 1.04638-1.33693.63203-.21131 1.18593-.03472 1.63763.44804.6638.70486.8988 1.57738.958 2.33519.0109 1.0419-.3179 1.561-1.0319 1.8178-.6985.2531-1.409.0329-1.89434-.6267zm3.96814 3.0148c-.3443-.3116-.7286-.5813-1.0847-.8836-.4545-.386-.501-.8123-.1102-1.2548.2186-.2497.4938-.4499.7377-.6759 1.0074-.93438 1.184-2.31509.4226-3.44095-.1711-.2531-.3989-.46441-.6776-.78857.7715.10379 1.3753-.06188 1.9262-.56473-1.2915 0-2.5218-.00905-3.7513.00372-.6403.00917-1.25326.1658-1.83523.43911-1.69581.79762-2.32229 2.7903-1.31324 4.22582.59015.8415 1.4463 1.131 2.43797 1.1164.1166-.0018.4073-.1494.3033.1877-.182.5848.0174 1.0674.4363 1.6065-.2287 0-.346-.0127-.4609 0-1.11461.1257-2.22225.277-3.14028 1.0182-1.2877 1.0383-1.18663 2.7287.22048 3.5975 1.52369.9381 4.4645.6977 5.8224-.4772 1.3935-1.204 1.4245-2.8671.0665-4.1092z" fill-rule="evenodd"/><path d="m16.5282 9.65935v-1.52468h-1.5355v-1.05084h1.5355v-1.52269h1.0227v1.52269h1.5391v1.05084h-1.5391v1.52468z"/></g></svg>

<svg width="24" height="24" viewBox="0 0 24 24" fill="none" xmlns="http://www.w3.org/2000/svg">
<path d="M24 12.0019C24 18.6302 18.6265 24 11.999 24C5.3724 24 0 18.6302 0 12.0019C0 5.37512 5.3724 0 11.999 0C18.6265 0 24 5.37512 24 12.0019Z" class="bg" fill="#888f91"/>
<path fill-rule="evenodd" clip-rule="evenodd" d="M13.4153 16.1311C13.346 16.776 12.9699 17.1985 12.4015 17.4553C11.9233 17.6721 11.4171 17.765 10.8906 17.745C10.1493 17.7122 9.42967 17.5956 8.80504 17.1567C7.63739 16.3332 7.74676 14.776 9.01809 14.1384C9.76958 13.7613 10.5837 13.6557 11.4043 13.6958C12.2931 13.7394 13.5099 15.2531 13.4153 16.1311ZM9.58096 10.264C9.00445 9.48275 8.76313 8.59374 8.86519 7.6266C8.93438 6.97084 9.28049 6.49912 9.91157 6.28967C10.5436 6.07836 11.0975 6.25495 11.5492 6.73771C12.213 7.44257 12.448 8.31509 12.5072 9.0729C12.5181 10.1148 12.1893 10.6339 11.4753 10.8907C10.7768 11.1438 10.0663 10.9236 9.58096 10.264ZM13.5491 13.2788C13.2048 12.9672 12.8205 12.6975 12.4644 12.3952C12.0099 12.0092 11.9634 11.5829 12.3542 11.1404C12.5728 10.8907 12.848 10.6905 13.0919 10.4645C14.0993 9.53012 14.2759 8.14941 13.5145 7.02355C13.3434 6.77045 13.1156 6.55914 12.8369 6.23498C13.6084 6.33877 14.2122 6.1731 14.7631 5.67025C13.4716 5.67025 12.2413 5.6612 11.0118 5.67397C10.3715 5.68314 9.75854 5.83977 9.17657 6.11308C7.48076 6.9107 6.85428 8.90338 7.86333 10.3389C8.45348 11.1804 9.30963 11.4699 10.3013 11.4553C10.4179 11.4535 10.7086 11.3059 10.6046 11.643C10.4226 12.2278 10.622 12.7104 11.0409 13.2495C10.8122 13.2495 10.6949 13.2368 10.58 13.2495C9.46539 13.3752 8.35775 13.5265 7.43972 14.2677C6.15202 15.306 6.25309 16.9964 7.6602 17.8652C9.18389 18.8033 12.1247 18.5629 13.4826 17.388C14.8761 16.184 14.9071 14.5209 13.5491 13.2788Z" class="g" fill="#212d31" />
<path d="M16.5282 9.65935V8.13467H14.9927V7.08383H16.5282V5.56114H17.5509V7.08383H19.09V8.13467H17.5509V9.65935H16.5282Z" class="g" fill="#212d31" />
</svg>
